src/icons/filled/log-in-filled.svg

<?xml version="1.0" encoding="UTF-8"?>
<svg id="Layer_1" xmlns="http://www.w3.org/2000/svg" version="1.1" viewBox="0 0 24 24">
  <!-- Generator: Adobe Illustrator 30.0.0, SVG Export Plug-In . SVG Version: 2.1.1 Build 123)  -->
  <path d="M11.5,21.5v-3h8V5.5h-8v-3h8.5c1.4,0,2.5,1.1,2.5,2.5v14c0,1.4-1.1,2.5-2.5,2.5h-8.5ZM8.9,15.6l2.1-2.1H1.5v-3h9.5l-2.1-2.1,2.1-2.1,5.7,5.7-5.7,5.7-2.1-2.1Z"/>
  <path d="M11,7l-1.4,1.4,2.6,2.6H2v2h10.2l-2.6,2.6,1.4,1.4,5-5-5-5ZM20,19h-8v2h8c1.1,0,2-.9,2-2V5c0-1.1-.9-2-2-2h-8v2h8v14Z"/>
</svg>

<svg xmlns="http://www.w3.org/2000/svg" viewBox="0 0 24 24"><path d="M11.5 21.5v-3h8v-13h-8v-3H20c1.4 0 2.5 1.1 2.5 2.5v14c0 1.4-1.1 2.5-2.5 2.5zm-2.6-5.9 2.1-2.1H1.5v-3H11L8.9 8.4 11 6.3l5.7 5.7-5.7 5.7z"/><path d="M11 7 9.6 8.4l2.6 2.6H2v2h10.2l-2.6 2.6L11 17l5-5zm9 12h-8v2h8c1.1 0 2-.9 2-2V5c0-1.1-.9-2-2-2h-8v2h8z"/></svg>
